X:1
T:Aan den Nacht
T:Trad. arr. Wim Verkaik
T:Aan den Nacht
%%score [ 1 2 3 4 ]
L:1/8
Q:1/4=80
M:3/4
K:Eb
V:1 treble nm="Soprano" snm="S"
V:2 treble nm="Alto" snm="A"
V:3 treble-8 nm="Tenor" snm="T"
V:4 bass nm="Bass" snm="B"
V:1
 B4 B2 | e4 B2 | G3 A F2 | E6 | E2 A2 c2 | B4 B2 | =A2 e2 A2 | B4 z2 | B4 B2 | e4 B2 | G3 A F2 | %11
w: Stijg, o|Nacht, _|stil- * le|Nacht,|Sta- * tig|op aan|'she- * mels|boog!|Sla, be-|kleed met|ster- * ren-|
w: O hoe|klaar, _|rein _ en|zacht,|Tin- * telt|d'a- vond-|ster _ om-|hoog!|Hoe z'ons|min- zaam|te- * gen-|
 E6 | =A3 G F2 | B4 c2 | d3 e c2 | B4 z2 | B2 B2 B2 | B4 B2 | f2 ed cA | G4 z2 | B2 B2 B2 | B4 B2 | %22
w: pracht,|Vreed- * zaam|op deez'|aard' _ uw|oog!|Wie op zijn|spond' uw|la- fe- * nis _|wacht,|Schenk hem uw|zoet- heid,|
w: lacht,|Waar' _ z'een|blik uit|'sHee- * ren|oog!|Lief- lijk ge-|flon- ker,|tuigt 't~ons _ ge- *|moed,|Dat ons een|Va- der|
 f2 ed cA | G6 | e3 e e2 | e4 c2 | c3 c c2 | c6 | f2 ed cB | Bgfe dc | B3 c d2 | e4 z2 :| %32
w: vriend- lij _ ke _|Nacht!|Wie op zijn|spond' uw|la- fe- nis|wacht,|Schenk hem _ uw _|zoet- * * * heid _|vriend' lij- ke|Nacht!|
w: leidt en _ be- *|hoedt!|Lief- lijk ge-|flon- ker,|tuigt 't~ons ge-|moed,|Dat ons- * een _|Va- * * * der _|leidt en be-|hoedt!|
V:2
 G2 A2 F2 | G6 | E3 F D2 | E6 | E4 A2 | G4 F2 | E4 E2 | D4 z2 | G2 A2 F2 | G4 G2 | E3 F D2 | E6 | %12
w: Stijg, _ o|Nacht,|stil- * le|Nacht,|Sta- tig|op aan|'she- mels|boog!|Sla, _ be-|kleed met|ster- * ren-|pracht,|
w: O _ hoe|klaar,|rein _ en|zacht,|Tin- telt|d'a- vond-|ster om-|hoog!|Hoe _ z'ons|min- zaam|te- * gen-|lacht,|
 E4 F2 | F2 B2 B2 | B3 c =A2 | B4 z2 | G2 ^FG AG | G2 F=E F2 | A2 A2 AF | E4 z2 | G2 ^FG AG | %21
w: Vreed- zaam|op _ deez'|aard' _ uw|oog!|Wie op _ zijn _|spond' _ _ uw|la- fe- nis _|wacht,|Schenk hem _ uw _|
w: Waar' z'een|blik _ uit|'sHee- * ren|oog!|Lief- lijk _ ge- *|flon- * * ker,|tuigt 't~ons ge- *|moed,|Dat ons _ een _|
 G2 F=E F2 | A2 A2 AF | E6 | G3 A B2 | c4 A2 | B3 A G2 | A6 | A2 A2 A2 | Gedc BA | G3 A F2 | %31
w: zoet- * * heid,|vriend- lij ke _|Nacht!|Wie op zijn|spond' uw|la- fe- nis|wacht,|Schenk hem uw|zoet- * * * heid _|vriend' lij- ke|
w: Va- * * der|leidt en be- *|hoedt!|Lief- lijk ge-|flon- ker,|tuigt 't~ons ge-|moed,|Dat ons- een|Va- * * * der _|leidt en be-|
 G4 z2 :| %32
w: Nacht!|
w: hoedt!|
V:3
 e2 d2 c2 | B6 | B4 A2 | G6 | A2 c2 e2 | e2 B2 G2 | F2 G2 =A2 | F4 z2 | e2 d2 c2 | B4 B2 | B4 A2 | %11
w: Stijg, _ o|Nacht,|stil- le|Nacht,|Sta- * tig|op _ aan|'she- * mels|boog!|Sla, _ be-|kleed met|ster- ren-|
w: O _ hoe|klaar,|rein en|zacht,|Tin- * telt|d'a- * vond-|ster _ om-|hoog!|Hoe _ z'ons|min- zaam|te- gen-|
 G6 | F4 =A2 | B2 =A2 G2 | B2 f2 e2 | d4 z2 | B2 c2 dB | e2 B2 B2 | d2 c2 A2 | B4 z2 | B2 c2 dB | %21
w: pracht,|Vreed- zaam|op _ deez'|aard' _ uw|oog!|Wie op zijn _|spond' _ uw|la- fe- nis|wacht,|Schenk hem uw _|
w: lacht,|Waar' z'een|blik _ uit|'sHee- * ren|oog!|Lief- lijk ge- *|flon- * ker,|tuigt 't~ons ge-|moed,|Dat ons een _|
 e2 B2 B2 | d2 c2 A2 | B6 | B3 c B2 | A2 c2 e2 | e3 d c2 | f6 | F2 A2 c2 | B4 c2 | e3 e d2 | %31
w: zoet- * heid,|vriend- lij ke|Nacht!|Wie op zijn|spond' _ uw|la- fe- nis|wacht,|Schenk hem uw|zoet- heid|vriend' lij- ke|
w: Va- * der|leidt en be-|hoedt!|Lief- lijk ge-|flon- * ker,|tuigt 't~ons ge-|moed,|Dat ons- een|Va- der|leidt en be-|
 B4 z2 :| %32
w: Nacht!|
w: hoedt!|
V:4
 E,2 F,2 D,2 | E,6 | B,,4 B,,2 | E,6 | C,4 A,,2 | E,4 D,2 | C,4 F,2 | B,,4 z2 | E,2 F,2 D,2 | %9
w: Stijg, _ o|Nacht,|stil- le|Nacht,|Sta- tig|op aan|'she- mels|boog!|Sla, _ be-|
w: O _ hoe|klaar,|rein en|zacht,|Tin- telt|d'a- vond-|ster om-|hoog!|Hoe _ z'ons|
 E,4 E,2 | B,,4 B,,2 | C,6 | C,4 E,2 | D,4 E,2 | F,4 F,2 | B,,4 z2 | E,2 D,E, F,E, | %17
w: kleed met|ster- ren-|pracht,|Vreed- zaam|op deez'|aard' uw|oog!|Wie op _ zijn _|
w: min- zaam|te- gen-|lacht,|Waar' z'een|blik uit|'sHee- ren|oog!|Lief- lijk _ ge- *|
 E,2 D,^C, D,2 | B,,2 B,,2 C,D, | E,2 B,2 G,2 | E,2 D,E, F,E, | E,2 D,^C, D,2 | B,,2 B,,2 C,D, | %23
w: spond' _ _ uw|la- fe- nis _|wacht, _ _|Schenk hem _ uw _|zoet- * * heid,|vriend- lij ke _|
w: flon- * * ker,|tuigt 't~ons ge- *|moed, _ _|Dat ons _ een _|Va- * * der|leidt en be- *|
 E,6 | E,3 F, G,2 | A,4 A,2 | G,3 F, =E,2 | F,6 | B,,2 B,,2 C,D, | E,4 A,,2 | B,,3 B,, B,,2 | %31
w: Nacht!|Wie op zijn|spond' uw|la- fe- nis|wacht,|Schenk hem uw _|zoet- heid|vriend' lij- ke|
w: hoedt!|Lief- lijk ge-|flon- ker,|tuigt 't~ons ge-|moed,|Dat ons- een _|Va- der|leidt en be-|
 E,4 z2 :| %32
w: Nacht!|
w: hoedt!|

